Numix/scalable/status/checkbox-checked-symbolic.svg

<?xml version="1.0" encoding="UTF-8" standalone="no"?>
<!-- Created with Inkscape (http://www.inkscape.org/) -->

<svg
   xmlns:osb="http://www.openswatchbook.org/uri/2009/osb"
   xmlns:dc="http://purl.org/dc/elements/1.1/"
   xmlns:cc="http://creativecommons.org/ns#"
   xmlns:rdf="http://www.w3.org/1999/02/22-rdf-syntax-ns#"
   xmlns:svg="http://www.w3.org/2000/svg"
   xmlns="http://www.w3.org/2000/svg"
   xmlns:sodipodi="http://sodipodi.sourceforge.net/DTD/sodipodi-0.dtd"
   xmlns:inkscape="http://www.inkscape.org/namespaces/inkscape"
   sodipodi:docname="checkbox-checked-symbolic.svg"
   inkscape:export-filename="/home/sam/source-symbolic.png"
   inkscape:export-xdpi="270"
   inkscape:export-ydpi="270"
   height="16"
   id="svg7384"
   style="enable-background:new"
   version="1.1"
   inkscape:version="0.91 r"
   width="16">
  <sodipodi:namedview
     inkscape:bbox-nodes="true"
     inkscape:bbox-paths="true"
     bordercolor="#666666"
     borderlayer="false"
     borderopacity="1"
     inkscape:current-layer="layer9"
     inkscape:cx="10.281339"
     inkscape:cy="6.2592377"
     gridtolerance="10"
     inkscape:guide-bbox="true"
     guidetolerance="10"
     id="namedview88"
     inkscape:object-nodes="true"
     inkscape:object-paths="true"
     objecttolerance="10"
     pagecolor="#f7f7f7"
     inkscape:pageopacity="1"
     inkscape:pageshadow="2"
     showborder="true"
     showgrid="true"
     showguides="true"
     inkscape:showpageshadow="false"
     inkscape:snap-bbox="true"
     inkscape:snap-bbox-edge-midpoints="false"
     inkscape:snap-bbox-midpoints="false"
     inkscape:snap-center="false"
     inkscape:snap-global="true"
     inkscape:snap-grids="true"
     inkscape:snap-intersection-paths="true"
     inkscape:snap-midpoints="true"
     inkscape:snap-nodes="true"
     inkscape:snap-object-midpoints="true"
     inkscape:snap-others="true"
     inkscape:snap-page="false"
     inkscape:snap-smooth-nodes="true"
     inkscape:snap-to-guides="true"
     inkscape:window-height="1056"
     inkscape:window-maximized="1"
     inkscape:window-width="1920"
     inkscape:window-x="0"
     inkscape:window-y="24"
     inkscape:zoom="32">
    <inkscape:grid
       color="#000000"
       dotted="false"
       empcolor="#0800ff"
       empopacity="0.4627451"
       empspacing="5"
       enabled="true"
       id="grid4866"
       opacity="0.16470588"
       originx="0"
       originy="0"
       snapvisiblegridlinesonly="true"
       spacingx="1"
       spacingy="1"
       type="xygrid"
       visible="true" />
  </sodipodi:namedview>
  <metadata
     id="metadata90">
    <rdf:RDF>
      <cc:Work
         rdf:about="">
        <dc:format>image/svg+xml</dc:format>
        <dc:type
           rdf:resource="http://purl.org/dc/dcmitype/StillImage" />
        <dc:title>Paper Symbolic Icon Theme</dc:title>
      </cc:Work>
    </rdf:RDF>
  </metadata>
  <title
     id="title8473">Paper Symbolic Icon Theme</title>
  <defs
     id="defs7386">
    <linearGradient
       id="linearGradient5606"
       osb:paint="solid">
      <stop
         id="stop5608"
         offset="0"
         style="stop-color:#000000;stop-opacity:1;" />
    </linearGradient>
    <filter
       inkscape:collect="always"
       color-interpolation-filters="sRGB"
       id="filter7554">
      <feBlend
         inkscape:collect="always"
         id="feBlend7556"
         in2="BackgroundImage"
         mode="darken" />
    </filter>
  </defs>
  <g
     inkscape:groupmode="layer"
     id="layer9"
     inkscape:label="status"
     style="display:inline"
     transform="translate(-585.00043,295.00336)">
    <path
       style="color:#000000;font-style:normal;font-variant:normal;font-weight:normal;font-stretch:normal;font-size:medium;line-height:normal;font-family:sans-serif;text-indent:0;text-align:start;text-decoration:none;text-decoration-line:none;text-decoration-style:solid;text-decoration-color:#000000;letter-spacing:normal;word-spacing:normal;text-transform:none;direction:ltr;block-progression:tb;writing-mode:lr-tb;baseline-shift:baseline;text-anchor:start;white-space:normal;clip-rule:nonzero;display:inline;overflow:visible;visibility:visible;opacity:1;isolation:auto;mix-blend-mode:normal;color-interpolation:sRGB;color-interpolation-filters:linearRGB;solid-color:#000000;solid-opacity:1;fill:#bebebe;fill-opacity:1;fill-rule:nonzero;stroke:none;stroke-width:1;stroke-linecap:butt;stroke-linejoin:miter;stroke-miterlimit:4;stroke-dasharray:none;stroke-dashoffset:0;stroke-opacity:1;color-rendering:auto;image-rendering:auto;shape-rendering:auto;text-rendering:auto;enable-background:accumulate"
       d="M 4 2 C 2.90065 2 2 2.90065 2 4 L 2 12 C 2 13.09936 2.90065 14 4 14 L 12 14 C 13.09935 14 14 13.09936 14 12 L 14 7.3046875 L 13 8.3046875 L 13 12 C 13 12.56265 12.56265 13 12 13 L 4 13 C 3.43735 13 3 12.56265 3 12 L 3 4 C 3 3.43736 3.43735 3 4 3 L 12 3 C 12.188213 3 12.351509 3.0622392 12.5 3.1484375 L 12.986328 2.6621094 C 13.067484 2.5809539 13.157292 2.5133402 13.251953 2.4550781 C 12.907589 2.1748585 12.47553 2 12 2 L 4 2 z "
       transform="translate(585.00043,-295.00336)"
       id="rect4168" />
    <rect
       style="opacity:1;fill:#bebebe;fill-opacity:1;fill-rule:nonzero;stroke:none;stroke-width:1;stroke-linecap:butt;stroke-linejoin:miter;stroke-miterlimit:4;stroke-dasharray:none;stroke-dashoffset:0;stroke-opacity:1"
       id="rect4170"
       width="2"
       height="5.5"
       x="619.05756"
       y="213.6226"
       rx="0.5"
       ry="0.5"
       transform="matrix(0.70710678,-0.70710678,0.70710678,0.70710678,0,0)" />
    <rect
       ry="0.49999997"
       rx="0.5"
       y="-630.05756"
       x="217.1226"
       height="11"
       width="2"
       id="rect4172"
       style="opacity:1;fill:#bebebe;fill-opacity:1;fill-rule:nonzero;stroke:none;stroke-width:1;stroke-linecap:butt;stroke-linejoin:miter;stroke-miterlimit:4;stroke-dasharray:none;stroke-dashoffset:0;stroke-opacity:1"
       transform="matrix(0.70710678,0.70710678,-0.70710678,0.70710678,0,0)" />
  </g>
  <g
     inkscape:groupmode="layer"
     id="layer10"
     inkscape:label="devices"
     style="display:inline;filter:url(#filter7554)"
     transform="translate(-585.00043,295.00336)" />
  <g
     inkscape:groupmode="layer"
     id="layer1"
     inkscape:label="places"
     style="display:inline"
     transform="translate(-344.00023,-321.99664)" />
  <g
     inkscape:groupmode="layer"
     id="layer14"
     inkscape:label="mimetypes"
     style="display:inline"
     transform="translate(-585.00043,295.00336)" />
  <g
     inkscape:groupmode="layer"
     id="layer15"
     inkscape:label="emblems"
     style="display:inline"
     transform="translate(-585.00043,295.00336)" />
  <g
     inkscape:groupmode="layer"
     id="g71291"
     inkscape:label="emotes"
     style="display:inline"
     transform="translate(-585.00043,295.00336)" />
  <g
     inkscape:groupmode="layer"
     id="layer2"
     inkscape:label="categories"
     style="display:inline"
     transform="translate(-344.00023,-171.99664)" />
  <g
     inkscape:groupmode="layer"
     id="g6058"
     inkscape:label="apps"
     style="display:inline"
     transform="translate(-344.00023,-171.99664)" />
  <g
     inkscape:groupmode="layer"
     id="layer12"
     inkscape:label="actions"
     style="display:inline"
     transform="translate(-585.00043,295.00336)" />
</svg>

<!-- Created with Inkscape (http://www.inkscape.org/) -->
<svg xmlns="http://www.w3.org/2000/svg" viewBox="0 0 16 16" style="enable-background:new">
 <g transform="translate(-585.00043,295.00336)" style="display:inline">
  <path d="m 4 2 c -1.099 0 -2 0.901 -2 2 l 0 8 c 0 1.099 0.901 2 2 2 l 8 0 c 1.099 0 2 -0.901 2 -2 l 0 -4.695 l -1 1 l 0 3.695 c 0 0.563 -0.437 1 -1 1 l -8 0 c -0.563 0 -1 -0.437 -1 -1 l 0 -8 c 0 -0.563 0.437 -1 1 -1 l 8 0 c 0.188 0 0.352 0.062 0.5 0.148 l 0.486 -0.486 c 0.081 -0.081 0.171 -0.149 0.266 -0.207 c -0.344 -0.28 -0.776 -0.455 -1.252 -0.455 l -8 0 z" transform="translate(585.00043,-295.00336)" mix-blend-mode="normal" isolation="auto" white-space="normal" solid-opacity="1" solid-color="#000000" style="visibility:visible;shape-rendering:auto;color-interpolation-filters:linearRGB;fill:#bebebe;opacity:1;image-rendering:auto;fill-opacity:1;stroke:none;color:#000;fill-rule:nonzero;color-rendering:auto;color-interpolation:sRGB"/>
  <rect width="2" height="5.5" x="619.06" y="213.62" rx="0.5" transform="matrix(0.70710678,-0.70710678,0.70710678,0.70710678,0,0)" style="fill:#bebebe;opacity:1;fill-opacity:1;stroke:none;fill-rule:nonzero"/>
  <rect rx="0.5" y="-630.06" x="217.12" height="11" width="2" transform="matrix(0.70710678,0.70710678,-0.70710678,0.70710678,0,0)" style="fill:#bebebe;opacity:1;fill-opacity:1;stroke:none;fill-rule:nonzero"/>
 </g>
</svg>
